X: 229
T: Castle Hyde
B: O'Neill's 229
N: "Tenderly"
N: "Collected by F.O'Neill"
Z: 1997 by John Chambers <jc@trillian.mit.edu>
M: 3/4
L: 1/8
K:G
(B A>G) \
| G2 (Bdef) | g3 (edB) | (A2 G)(BAG) | E3 (BAG) \
| G2 (Bde>f) | g3 (edc) | (B2 G>)(BA>G) | G3 :|
|| d (d>B) \
| g3 (fed) | (e>d B)B dB | g3 (fed) | e3 (def) \
| (gagf) (e^d) | e>f Hg>edB | (A2 G>)(BA>G) | G3 ||


